!!!!SEGMENT: pl-sa--70-a-ii-10--002_pergolesi-giovanni-battista--stabat-mater-cuius-animam.krn
!!!cenid: 17xx:644
!!!COM: Pergolesi, Giovanni Battista
!!!COM-rismid: pe30002483
!!!CDT: 1710/01/04-1736/03
!!!CNT: Italian
!!!OPR: Stabat Mater
!!!OTL: Cuius animam
!!!OMV: 002
!!!PDT:
!!!AGN: Sacred
!!!SMS-siglum: PL-SA
!!!SMS-shelfmark: 70/A II 10
!!!SMS-shelfwork: 001-002 M
!!!SMS-variant:
!!!SMS-altvar:
!!!NIFC-rismid: 1001030091
!!!URL-scan: http://bc.bdsandomierz.pl/dlibra/publication/1341/edition/1309/content
!!!ONB-nifc: UWAGA: części Stabat Mater: Stabat Mater, Cuius animam, O quam tristis, Quae moerebat, Quist est homo+Pro peccatis, Vidit suum, Eja mater, Fac ut ardeat, Sancta Mater, Fac ut portem, Inflammatus, Quando corpus+Amen
!!!key:
**kern	**fba	**kern	**dynam	**kern	**dynam	**kern	**dynam	**kern	**kern	**text
*part6	*	*part5	*part5	*part4	*part4	*part3	*part3	*part2	*part1	*part1
*staff6	*	*staff5	*	*staff4	*	*staff3	*	*staff2	*staff1	*staff1
*Iorgan	*	*Iviola	*	*Ivioln	*	*Ivioln	*	*Ialto	*Ivox	*
*I"Organo	*	*I"alto Viola	*	*I"Violino 2do.	*	*I"Violino 1mo	*	*I"alto	*I"Canto	*
*I'Org.	*	*I'a-vla	*	*I'vl 2	*	*I'vl 1	*	*I'A	*I'S	*
*clefF4	*	*clefC3	*	*clefG2	*	*clefG2	*	*clefC3	*clefC1	*
*k[b-e-a-]	*	*k[b-e-a-]	*	*k[b-e-a-]	*	*k[b-e-a-]	*	*k[b-e-a-]	*k[b-e-a-]	*
*c:	*	*c:	*	*c:	*	*c:	*	*c:	*c:	*
*M3/8	*	*M3/8	*	*M3/8	*	*M3/8	*	*M3/8	*M3/8	*
=1	=1	=1	=1	=1	=1	=1	=1	=1	=1	=1
!LO:TX:a:t=P::problem=kolejność znaków w źródle&colon; E-, BB-, AA-	!	!LO:TX:a:t=P::problem=kolejność znaków w źródle&colon; e-, B-, A-	!	!LO:TX:a:t=P::problem=kolejność znaków w źródle&colon; ee-, b-, a-	!	!LO:TX:a:t=P::problem=kolejność znaków w źródle&colon; ee-, b-, a-	!	!	!LO:TX:a:t=P::problem=kolejność znaków w źródle&colon; ee-, b-, a-	!
!LO:TX:a:i:t=andante	!	!LO:TX:a:i:t=andte	!	!LO:TX:a:i:t=andante	!	!LO:TX:a:i:t=Andante	!	!LO:TX:a:i:t=Cuius animam Tacet	!LO:TX:a:i:t=adagio	!
!LO:TX:b:i:t=Cuius animam	!	!LO:TX:b:i:t=Cuius anima	!	!LO:TX:b:i:t=Cuius anima	!	!LO:TX:b:i:t=Cuius anima	!	!LO:N:vis=00	!	!
4C/	.	4e-\	.	4cc\	.	8cc\	.	4.ryy	1.r	.
.	.	.	.	.	.	4dd\	.	.	.	.
8BBn/	6 5	8d\	.	8dd\	.	.	.	.	.	.
=2	=2	=2	=2	=2	=2	=2	=2	=2	=2	=2
4C/	.	4c\	.	4ee-\	.	8ee-\	.	4.ryy	.	.
.	.	.	.	.	.	4ff\	.	.	.	.
8D/	X 6|	8Bn/	.	8ff\	.	.	.	.	.	.
=3	=3	=3	=3	=3	=3	=3	=3	=3	=3	=3
4E-\	X 6	4g\	.	8gg\	.	8gg\	.	4.ryy	.	.
.	.	.	.	4aa-\	.	4aa-\	.	.	.	.
8F\	.	8c\	.	.	.	.	.	.	.	.
=4	=4	=4	=4	=4	=4	=4	=4	=4	=4	=4
8F\L	X 4	8d\L	.	8bn\L	.	8bn\L	.	4.ryy	.	.
8E-\J	X 6	8e-\J	.	8cc\J	.	8cc\J	.	.	.	.
8r	.	8r	.	8r	.	8r	.	.	.	.
=5	=5	=5	=5	=5	=5	=5	=5	=5	=5	=5
!	!	!	!	!	!	!	!	!	!LO:N:vis=00	!
4BB-/	X -	4d-X\	.	8b-X\	.	8b-X\	.	4.ryy	1.r	.
.	.	.	.	4cc\	.	4cc\	.	.	.	.
8AAn/	6 5	8c\	.	.	.	.	.	.	.	.
=6	=6	=6	=6	=6	=6	=6	=6	=6	=6	=6
4BB-/	X -	4B-/	.	8dd-X\	.	8dd-X\	.	4.ryy	.	.
.	.	.	.	4ee-\	.	4ee-\	.	.	.	.
8C/	X 6|	8An/	.	.	.	.	.	.	.	.
=7	=7	=7	=7	=7	=7	=7	=7	=7	=7	=7
4D-X\	X 6	4f\	.	8ff\	.	8ff\	.	4.ryy	.	.
.	.	.	.	4gg-X\	.	4gg-X\	.	.	.	.
8E-\	X -	8B-/	.	.	.	.	.	.	.	.
=8	=8	=8	=8	=8	=8	=8	=8	=8	=8	=8
8E-\L	X n4	8c\L	.	8an\L	.	8an\L	.	4.ryy	.	.
8D-X\J	X 6	8d-X\J	.	8b-\J	.	8b-\J	.	.	.	.
8r	.	8r	.	8r	.	8r	.	.	.	.
!LO:LB:g=original	!	!	!	!	!	!	!	!	!	!
=9	=9	=9	=9	=9	=9	=9	=9	=9	=9	=9
!	!	!	!	!	!	!	!	!	!LO:N:vis=00	!
4.G\	X -5	4.e-\	.	(>16b-\LL	.	16b-\LL	.	4.ryy	1.r	.
.	.	.	.	16cc\J	.	16cc\JJ	.	.	.	.
!	!	!	!	!	!	!LO:LB:g=original	!	!	!	!
.	.	.	.	8dd-X\	.	8dd-X\L	.	.	.	.
.	.	.	.	8dd-\J)	.	8dd-\J	.	.	.	.
=10	=10	=10	=10	=10	=10	=10	=10	=10	=10	=10
8A-\L	.	4e-\	.	16cc\LL	.	16cc\LL	.	4.ryy	.	.
.	.	.	.	16b-\J	.	16b-\JJ	.	.	.	.
8c\	.	.	.	8a-\J	.	4a-\	.	.	.	.
8B-\J	.	8g\	.	8r	.	.	.	.	.	.
=11	=11	=11	=11	=11	=11	=11	=11	=11	=11	=11
4.A-\	X 6	4a-\	.	(>16ff\LL	.	16ff\LL	.	4.ryy	.	.
.	.	.	.	16gg\J	.	16gg\J	.	.	.	.
.	.	.	.	8aa-\	.	8aa-\	.	.	.	.
.	.	8cc\	.	8aa-\J)	.	8aa-\J	.	.	.	.
=12	=12	=12	=12	=12	=12	=12	=12	=12	=12	=12
8A-\L	X 2	4.d\	.	4.bn\	.	4bn\	.	4.ryy	.	.
8G\	X n	.	.	.	.	.	.	.	.	.
8F\J	.	.	.	.	.	8r	.	.	.	.
=13	=13	=13	=13	=13	=13	=13	=13	=13	=13	=13
!	!	!	!	!	!	!	!	!	!LO:N:vis=00	!
8E-\L	X 6	8g\L	.	8cc\L	.	8cc\L	.	4.ryy	1.r	.
8D\	X 6|	8bn\	.	8ff\	.	8ff\	.	.	.	.
8C\J	.	8cc\J	.	8ee-\J	.	8ee-\J	.	.	.	.
=14	=14	=14	=14	=14	=14	=14	=14	=14	=14	=14
4G\	X 4	8cc\L	.	8ee-\L	.	8ee-\L	.	4.ryy	.	.
.	4 3	8bn\J	.	8dd\J	.	8dd\J	.	.	.	.
8r	.	8r	.	8r	.	8r	.	.	.	.
=15	=15	=15	=15	=15	=15	=15	=15	=15	=15	=15
.	.	.	.	.	.	8qqff#X/	.	.	.	.
!	!	!LO:TX:a:t=P:problem=znak początku repetycji	!	!	!	!	!	!	!	!
8r	.	4.bn\	.	4.gg\	.	4.gg\	.	4.ryy	.	.
8G\L	X n	.	.	.	.	.	.	.	.	.
8F\J	.	.	.	.	.	.	.	.	.	.
=16	=16	=16	=16	=16	=16	=16	=16	=16	=16	=16
!	!	!	!	!	!	!LO:SIC:s=8qqff#	!	!	!	!
.	.	.	.	.	.	8qqff/	.	.	.	.
8E-\L	X 6	4.cc\	.	4.gg\	.	4.gg\	.	4.ryy	.	.
8D\	.	.	.	.	.	.	.	.	.	.
8C\J	.	.	.	.	.	.	.	.	.	.
!	!	!LO:TX:a:t=P:problem=znak końca repetycji	!	!	!	!	!	!	!	!
=17	=17	=17	=17	=17	=17	=17	=17	=17	=17	=17
!	!	!	!	!	!	!LO:SIC:s=8qqff#	!	!	!	!
.	.	.	.	.	.	8qqff/	.	.	.	.
!LO:TX:a:t=P:problem=mixed beam	!	!	!	!	!	!	!	!	!LO:N:vis=00	!
8AA-/L	X n	4.bn\	.	4.gg\	.	4.gg\	.	4.ryy	1.r	.
8G\	.	.	.	.	.	.	.	.	.	.
8F\J	.	.	.	.	.	.	.	.	.	.
=18	=18	=18	=18	=18	=18	=18	=18	=18	=18	=18
!	!	!	!	!	!	!LO:SIC:s=8qqff#	!	!	!	!
.	.	.	.	.	.	8qqff/	.	.	.	.
8E-\L	X 6	4.cc\	.	4.gg\	.	4.gg\	.	4.ryy	.	.
8D\	.	.	.	.	.	.	.	.	.	.
8C\J	.	.	.	.	.	.	.	.	.	.
!	!	!LO:LB:g=original	!	!	!	!	!	!	!	!
=19	=19	=19	=19	=19	=19	=19	=19	=19	=19	=19
8r	.	8r	.	4.ff#X\	.	4.ff#X\	.	4.ryy	.	.
8D/L	X #	8d\L	.	.	.	.	.	.	.	.
8C/J	.	8c\J	.	.	.	.	.	.	.	.
=20	=20	=20	=20	=20	=20	=20	=20	=20	=20	=20
8BBn/L	6 5	8Bn/L	.	4.ffn\	.	4.ffn\	.	4.ryy	.	.
8AAn/	.	8An/	.	.	.	.	.	.	.	.
8GG/J	.	8G/J	.	.	.	.	.	.	.	.
=21	=21	=21	=21	=21	=21	=21	=21	=21	=21	=21
!	!	!	!	!	!	!	!	!	!LO:N:vis=00	!
8C\L	.	8c\L	.	8ee-\L	.	8ee-\L	.	4.ryy	1.r	.
8D\	.	8d\	.	8bn\	.	8bn\	.	.	.	.
8E-\J	X 6	8e-\J	.	8cc\J	.	8cc\J	.	.	.	.
!	!	!	!	!LO:LB:g=original	!	!	!	!	!	!
=22	=22	=22	=22	=22	=22	=22	=22	=22	=22	=22
!	!	!	!	!LO:TX:a:t=P:problem=znak początku repetycji	!	!LO:TX:a:t=P:problem=znak początku repetycji	!LO:DY:b	!	!	!
!LO:TX:a:t=P:problem=mixed beam	!	!LO:TX:a:t=P:problem=mixed beam	!	!	!	!	!LO:HP:b:t=pia	!	!	!
8F\L	6 5	8f\L	.	16dd\LL	.	16dd\LL	p	4.ryy	.	.
.	.	.	.	16ff\J	.	16ff\J	.	.	.	.
8G\	6 4	8g\	.	8ee-\	.	8ee-\	.	.	.	.
!	!	!	!	!	!	!LO:TX:a:t=bis:problem=łuk nad napisem	!	!	!	!
8GG/J	X n	8G/J	.	8bn\J	.	8bn\J	.	.	.	.
=23	=23	=23	=23	=23	=23	=23	=23	=23	=23	=23
!	!	!	!	!LO:TX:a:t=bis:rj:problem=łuk nad napisem	!	!	!	!	!	!
8r	.	8r	.	4dd\	.	4.cc\	.	4.ryy	.	.
8A-\L	X 6	8a-\L	.	.	.	.	.	.	.	.
8E-\J	X 6	8e-\J	.	8r	.	.	.	.	.	.
!	!	!	!	!LO:TX:a:t=P:problem=znak końca repetycji	!	!LO:TX:a:t=P:problem=znak końca repetycji	!	!	!	!
=24	=24	=24	=24	=24	=24	=24	=24	=24	=24	=24
4F\	6 5	4f\	.	16dd\LL	.	16dd\LL	.	4.ryy	.	.
.	.	.	.	16ff\J	.	16ff\J	.	.	.	.
.	.	.	.	8ee-\	.	8ee-\	.	.	.	.
8G\	X n	8g\	.	8bn\J	.	8bn\J	.	.	.	.
=25	=25	=25	=25	=25	=25	=25	=25	=25	=25	=25
!	!	!	!	!	!	!	!	!	!LO:N:vis=0	!
8r	.	8r	.	4dd\	.	4.cc\	.	4.ryy	2.r	.
8A-\L	X 6	8a-\L	.	.	.	.	.	.	.	.
8E-\J	X 6	8e-\J	.	8r	.	.	.	.	.	.
!LO:LB:g=original	!	!	!	!	!	!	!	!	!	!
=26	=26	=26	=26	=26	=26	=26	=26	=26	=26	=26
!LO:TX:a:t=P:problem=mixed beam	!	!LO:TX:a:t=P:problem=mixed beam	!	!	!	!	!	!	!	!
8F\L	6 5	8f\L	.	16dd\LL	.	16dd\LL	.	4.ryy	.	.
.	.	.	.	16ff\J	.	16ff\J	.	.	.	.
8G\	X 4	8g\	.	8ee-\	.	8ee-\	.	.	.	.
8GG/J	X n	8G/J	.	8dd\J	.	8bn\J	.	.	.	.
=27	=27	=27	=27	=27	=27	=27	=27	=27	=27	=27
!	!	!	!	!LO:TX:a:t=P:problem=mixed beam	!	!LO:TX:a:t=P:problem=mixed beam	!	!	!	!
4C/	.	4c\	.	8cc\L	.	8cc\L	.	4.ryy	4.r	.
.	.	.	.	8c/J	.	8c/J	.	.	.	.
8r	.	8r	.	8r	.	8r	.	.	.	.
=28	=28	=28	=28	=28	=28	=28	=28	=28	=28	=28
!	!	!	!LO:HP:b:t=p:	!	!	!	!LO:DY:b	!	!	!
!	!	!	!LO:DY:b:rj	!	!LO:DY:b	!	!LO:HP:b:t=p:	!	!	!
4C/	.	4e-\	p	8cc\	p	8cc\	p	4.ryy	8cc\	Cu-
.	.	.	.	4dd\	.	4dd\	.	.	4dd\	-ius
8BBn/	.	8d\	.	.	.	.	.	.	.	.
=29	=29	=29	=29	=29	=29	=29	=29	=29	=29	=29
4C/	.	4c\	.	8ee-\	.	8ee-\	.	4.ryy	8ee-\	a-
.	.	.	.	4ff\	.	4ff\	.	.	4ff\	-ni-
8D/	X n6	8Bn/	.	.	.	.	.	.	.	.
=30	=30	=30	=30	=30	=30	=30	=30	=30	=30	=30
4E-\	X 6	4G/	.	8gg\	.	8gg\	.	4.ryy	8gg\	-ma
.	.	.	.	4aa-\	.	4aa-\	.	.	4aa-\	ge-
8F\	.	8c\	.	.	.	.	.	.	.	.
!	!	!	!	!	!	!LO:LB:g=original	!	!	!	!
=31	=31	=31	=31	=31	=31	=31	=31	=31	=31	=31
8F\L	4 n2	8d\L	.	8bn\L	.	8bn\L	.	4.ryy	8bn\	-men-
8E-\J	X 6	8e-\J	.	8cc\J	.	8cc\J	.	.	8cc\	-tem
8r	.	8r	.	8r	.	8r	.	.	8r	.
=32	=32	=32	=32	=32	=32	=32	=32	=32	=32	=32
4BB-X/	X 6|	4d-X\	.	8b-X\	.	8b-X\	.	4.ryy	8b-X\	Con-
.	.	.	.	4cc\	.	4cc\	.	.	4cc\	-tris-
8AAn/	6 5	8c\	.	.	.	.	.	.	.	.
=33	=33	=33	=33	=33	=33	=33	=33	=33	=33	=33
4BB-/	X -	4B-/	.	8dd-X\	.	8dd-X\	.	4.ryy	8dd-X\	-tan-
.	.	.	.	4ee-\	.	4ee-\	.	.	4ee-\	-tem
8C/	X 6|	8An/	.	.	.	.	.	.	.	.
!	!	!LO:LB:g=original	!	!	!	!	!	!	!	!
=34	=34	=34	=34	=34	=34	=34	=34	=34	=34	=34
4D-X\	X -	4F/	.	8ff\	.	8ff\	.	4.ryy	8ff\	et
.	.	.	.	4gg-X\	.	4gg-X\	.	.	4gg-X\	do-
8E-\	X n6r	8B-/	.	.	.	.	.	.	.	.
=35	=35	=35	=35	=35	=35	=35	=35	=35	=35	=35
8E-\L	4 n2	8c\L	.	8an/L	.	8an/L	.	4.ryy	8an\	-len-
8D-X\J	X 6	8d-X\J	.	8b-/J	.	8b-/J	.	.	8b-\	-tem
8r	.	8r	.	8r	.	8r	.	.	8r	.
!	!	!	!	!	!	!	!	!	!LO:LB:g=original	!
=36	=36	=36	=36	=36	=36	=36	=36	=36	=36	=36
4.G\	6 -5	[>4.e-\	.	16b-\LL	.	16b-\LL	.	4.ryy	16b-\LL	per-
.	.	.	.	16cc\J	.	16cc\J	.	.	16cc\JJ	.
.	.	.	.	8dd-X\	.	8dd-X\	.	.	4dd-X\	-tran-
.	.	.	.	8dd-\J	.	8dd-\J	.	.	.	.
=37	=37	=37	=37	=37	=37	=37	=37	=37	=37	=37
8A-\L	.	4e-\]	.	16cc\LL	.	16cc\LL	.	4.ryy	16cc\LL	-si-
.	.	.	.	16b-\J	.	16b-\JJ	.	.	16b-\JJ	.
8c\	.	.	.	8a-\J	.	4a-\	.	.	4a-\	-vit
8A-\J	.	8cc\	.	8r	.	.	.	.	.	.
=38	=38	=38	=38	=38	=38	=38	=38	=38	=38	=38
4d-X\	X 7	8cc\	.	8ff\	.	8ff\	.	4.ryy	8ff\	per-
.	X 6	.	.	.	.	8qqee-/	.	.	.	.
!	!	!	!	!LO:SIC:s=4dd-	!	!	!	!	!	!
.	.	[>4b-\	.	4dd\	.	4dd-X\	.	.	4dd-X\	-tran-
8B-\	X -	.	.	.	.	.	.	.	.	.
=39	=39	=39	=39	=39	=39	=39	=39	=39	=39	=39
4c\	X 7	8b-\]	.	8ee-\	.	8ee-\	.	4.ryy	8ee-\	-si-
!	!	!	!	!	!	!	!	!	!LO:SIC:s=8qqdd-	!
!	!	!	!	!	!	!LO:SIC:s=8qqdd-	!	!	!	!
.	X 6	.	.	.	.	8qqdd/	.	.	8qqdd/	.
.	.	4a-\	.	4cc\	.	4cc\	.	.	4cc\	-vit
8A-\	X -	.	.	.	.	.	.	.	.	.
=40	=40	=40	=40	=40	=40	=40	=40	=40	=40	=40
8B-\L	X -6	8g\L	.	16b-\LL	.	16b-\LL	.	4.ryy	16b-\LL	gla-
.	.	.	.	16cc\J	.	16cc\J	.	.	16cc\J	.
8G\	6 5	8e-\	.	8dd-X\	.	8dd-X\	.	.	8dd-X\J	.
8A-\J	.	8e-\J	.	8cc\J	.	8cc\J	.	.	8cc\	-di-
=41	=41	=41	=41	=41	=41	=41	=41	=41	=41	=41
4E-\	.	(>4e-\	.	4b-\	.	4b-\	.	4.ryy	4b-\	-us
8r	.	8r	.	8r	.	8r	.	.	8r	.
=42	=42	=42	=42	=42	=42	=42	=42	=42	=42	=42
4E-\	X 5	[>4.e-\)	.	4g/	.	8b-\	.	4.ryy	8b-\	Cu-
.	.	.	.	.	.	4dd-X\	.	.	4dd-X\	-jus
8E-\	X -7	.	.	8g/	.	.	.	.	.	.
!LO:LB:g=original	!	!	!	!	!	!	!	!	!	!
=43	=43	=43	=43	=43	=43	=43	=43	=43	=43	=43
4.E-\	6 4	4.e-\_>	.	4.a-/	.	8cc\L	.	4.ryy	8cc\	a-
.	.	.	.	.	.	8ee-\	.	.	8ee-\L	-ni-
.	.	.	.	.	.	8a-\J	.	.	8a-\J	.
!	!	!	!	!LO:LB:g=original	!	!	!	!	!	!
=44	=44	=44	=44	=44	=44	=44	=44	=44	=44	=44
!	!	!	!	!	!	!LO:TX:a:t=P:problem=znak początku repetycji	!	!	!	!
4E-\	X 5	4.e-\_>	.	8g/	.	8b-\	.	4.ryy	8b-\	-mam
.	.	.	.	4g/	.	4dd-X\	.	.	4dd-X\	ge-
8E-\	X -7	.	.	.	.	.	.	.	.	.
=45	=45	=45	=45	=45	=45	=45	=45	=45	=45	=45
4.E-\	6 4	4.e-\_>	.	8a-/	.	8cc\L	.	4.ryy	8cc\	-men-
.	.	.	.	4a-/	.	8ee-\	.	.	8ee-\L	-tem
.	.	.	.	.	.	8a-\J	.	.	8a-\J	.
!	!	!	!	!	!	!LO:TX:a:t=P:problem=znak końca repetycji	!	!	!	!
=46	=46	=46	=46	=46	=46	=46	=46	=46	=46	=46
4E-\	X 5	4.e-\_>	.	8g/	.	8b-\	.	4.ryy	8b-\	Con-
.	.	.	.	4g/	.	4dd-X\	.	.	4dd-X\	-tri-
8E-\	X -7	.	.	.	.	.	.	.	.	.
!	!	!	!	!	!	!	!	!	!LO:LB:g=original	!
=47	=47	=47	=47	=47	=47	=47	=47	=47	=47	=47
4.E-\	6 4	4.e-\_>	.	8a-/	.	8cc\L	.	4.ryy	8cc\	-sta-
.	.	.	.	4a-/	.	8ee-\	.	.	8ee-\L	-tem
.	.	.	.	.	.	8a-\J	.	.	8a-\J	.
=48	=48	=48	=48	=48	=48	=48	=48	=48	=48	=48
8E-\L	X -7	8e-\L]	.	8g/L	.	8b-\L	.	4.ryy	8b-\	et
8E-\	.	8e-\	.	8b-/	.	8dd-X\	.	.	8dd-X\L	do-
8A-\J	.	8e-\J	.	8a-/J	.	8cc\J	.	.	8cc\J	.
=49	=49	=49	=49	=49	=49	=49	=49	=49	=49	=49
4E-\	6 4	4e-\	.	8a-/L	.	8cc\L	.	4.ryy	8cc\	-len-
.	X 5	.	.	8g/J	.	8b-\J	.	.	8b-\	-tem
8r	.	8r	.	8r	.	8r	.	.	8r	.
=50	=50	=50	=50	=50	=50	=50	=50	=50	=50	=50
8r	.	8r	.	4.ddn\	.	4.ddn\	.	4.ryy	4.ddn\	per-
8B-\L	X n	8b-\L	.	.	.	.	.	.	.	.
8A-\J	.	8a-\J	.	.	.	.	.	.	.	.
!	!	!	!	!	!	!LO:LB:g=original	!	!	!	!
=51	=51	=51	=51	=51	=51	=51	=51	=51	=51	=51
8G\L	X 5	8g\L	.	4.dd-X\	.	4.dd-X\	.	4.ryy	4.dd-X\	-tran-
8F\	X 6	8f\	.	.	.	.	.	.	.	.
8E-\J	.	8e-\J	.	.	.	.	.	.	.	.
!	!	!LO:LB:g=original	!	!	!	!	!	!	!	!
=52	=52	=52	=52	=52	=52	=52	=52	=52	=52	=52
8A-\L	6 5	8a-\L	.	8cc\L	.	8cc\L	.	4.ryy	8cc\L	-si-
8B-\	.	8b-\	.	8b-\	.	8b-\	.	.	8b-\J	.
8c\J	.	8cc\J	.	8a-\J	.	8a-\J	.	.	8a-\	-vit
=53	=53	=53	=53	=53	=53	=53	=53	=53	=53	=53
!LO:TX:a:t=P:problem=mixed beam	!	!LO:TX:a:t=P:problem=mixed beam	!	!	!	!	!	!	!	!
8D-X\L	6 5	8d\L	.	16b-\LL	.	16b-\LL	.	4.ryy	16b-\LL	gla-
.	.	.	.	16dd-X\J	.	16dd-X\J	.	.	16dd-X\J	.
8E-\	X 4	8e-\	.	8cc\	.	8cc\	.	.	8cc\J	.
8EE-/J	X 3	8E-/J	.	8g\J	.	8g\J	.	.	8g/	-di-
=54	=54	=54	=54	=54	=54	=54	=54	=54	=54	=54
8AA-/L	.	8A-/L	.	8a-/L	.	8a-/L	.	4.ryy	4a-\	-us
8BB-/	.	8B-/	.	8G/	.	8G/	.	.	.	.
8C/J	.	8c/J	.	8A-/J	.	8A-/J	.	.	8r	.
=55	=55	=55	=55	=55	=55	=55	=55	=55	=55	=55
8r	.	8r	.	4.ddn\	.	4.ddn\	.	4.ryy	4.ddn\	per-
8B-\L	X n	8b-\L	.	.	.	.	.	.	.	.
8A-\J	.	8a-\J	.	.	.	.	.	.	.	.
=56	=56	=56	=56	=56	=56	=56	=56	=56	=56	=56
8G\L	X 5	8g\L	.	4.dd-X\	.	4.dd-X\	.	4.ryy	4.dd-X\	-tran-
8F\	X -	8f\	.	.	.	.	.	.	.	.
8E-\J	.	8e-\J	.	.	.	.	.	.	.	.
=57	=57	=57	=57	=57	=57	=57	=57	=57	=57	=57
8AA-/L	.	8A-/L	.	8cc\L	.	8cc\L	.	4.ryy	8cc\L	-si-
8BB-/	.	8B-/	.	8b-\	.	8b-\	.	.	8b-\J	.
8C/J	.	8c/J	.	8a-\J	.	8a-\J	.	.	8a-\	-vit
=58	=58	=58	=58	=58	=58	=58	=58	=58	=58	=58
!LO:TX:a:t=P:problem=mixed beam	!	!LO:TX:a:t=P:problem=mixed beam	!	!	!	!	!	!	!	!
8D-X\L	6 5	8d-X\L	.	16f/LL	.	16f/LL	.	4.ryy	16f/LL	gla-
.	.	.	.	16b-/JJ	.	16b-/JJ	.	.	16b-/JJ	.
.	.	.	.	.	.	8qqa-/	.	.	.	.
!	!	!	!	!	!	!	!	!	!LO:LB:g=original	!
8E-\	X 4	8e-\	.	4g/	.	4g/	.	.	4g\	-di-
8EE-/J	X 3	8E-/J	.	.	.	.	.	.	.	.
=59	=59	=59	=59	=59	=59	=59	=59	=59	=59	=59
!	!	!	!	!LO:TX:a:t=P:problem=znak początku repetycji	!	!LO:TX:a:t=P:problem=znak początku repetycji	!	!	!	!
!	!	!	!	!	!	!	!LO:DY:b	!	!	!
!	!	!	!	!	!	!	!LO:HP:b:t=for	!	!	!
4AA-/	.	4A-/	.	8a-/	.	8a-/	f	4.ryy	4a-\	-us
.	.	.	.	4aa-\	.	4aa-\	.	.	.	.
8C/	.	8c/	.	.	.	.	.	.	8r	.
!LO:LB:g=original	!	!	!	!	!	!	!	!	!	!
=60	=60	=60	=60	=60	=60	=60	=60	=60	=60	=60
!	!	!	!	!	!	!	!	!	!LO:N:vis=00	!
4D-X\	6 5	4d-X\	.	16b-\LL	.	16b-\LL	.	4.ryy	1.r	.
!	!	!	!	!	!	!	!LO:DY:b:rj	!	!	!
!	!	!	!	!	!	!	!LO:HP:b:t=p:	!	!	!
.	.	.	.	16dd-X\J	.	16dd-X\J	p	.	.	.
.	.	.	.	8cc\	.	8cc\	.	.	.	.
8E-\	.	8e-\	.	8g\J	.	8g\J	.	.	.	.
!	!	!	!	!LO:TX:a:t=P:problem=znak końca repetycji	!	!LO:TX:a:t=P:problem=znak końca repetycji	!	!	!	!
=61	=61	=61	=61	=61	=61	=61	=61	=61	=61	=61
!	!	!	!	!	!	!	!LO:DY:b	!	!	!
!	!	!	!	!	!	!	!LO:HP:b:t=for	!	!	!
8r	.	8r	.	8a-/	.	8a-/	f	4.ryy	.	.
8F\L	.	8f\L	.	4aa-\	.	4aa-\	.	.	.	.
8C\J	X 6	8c\J	.	.	.	.	.	.	.	.
=62	=62	=62	=62	=62	=62	=62	=62	=62	=62	=62
!LO:TX:a:t=P:problem=mixed beam	!	!LO:TX:a:t=P:problem=mixed beam	!	!	!	!	!	!	!	!
!	!	!LO:SIC:s=8d-	!	!	!	!	!	!	!	!
8D-X\L	6 5	8d\L	.	16b-\LL	.	16b-\LL	.	4.ryy	.	.
!	!	!	!	!	!	!	!LO:DY:b:rj	!	!	!
!	!	!	!	!	!	!	!LO:HP:b:t=p:	!	!	!
.	.	.	.	16dd-X\J	.	16dd-X\J	p	.	.	.
8E-\	X 4	8e-\	.	8cc\	.	8cc\	.	.	.	.
.	X 3	.	.	.	.	.	.	.	.	.
8EE-/J	.	8E-/J	.	8g\J	.	8g\J	.	.	.	.
=63	=63	=63	=63	=63	=63	=63	=63	=63	=63	=63
!	!	!	!	!	!	!LO:TX:a:t=P:problem=mixed beam	!	!	!	!
4AA-/	.	4A-/	.	8a-/L	.	8a-\L	.	4.ryy	.	.
.	.	.	.	8A-/J	.	8A-/J	.	.	.	.
8r	.	8r	.	8r	.	8r	.	.	.	.
=64	=64	=64	=64	=64	=64	=64	=64	=64	=64	=64
!	!	!	!	!	!LO:DY:b:rj	!	!	!	!	!
8r	.	8r	.	4.cc\	p	4.ee-\	.	4.ryy	4.ee-\	Cu-
8A-\L	.	8a-\L	.	.	.	.	.	.	.	.
8A-\J	.	8a-\J	.	.	.	.	.	.	.	.
=65	=65	=65	=65	=65	=65	=65	=65	=65	=65	=65
8r	.	8r	.	4.b-\	.	4.ee-\	.	4.ryy	4.ee-\	-jus
8Gn\L	.	8gn\L	.	.	.	.	.	.	.	.
8G\J	.	8g\J	.	.	.	.	.	.	.	.
!	!	!	!	!LO:LB:g=original	!	!	!	!	!	!
=66	=66	=66	=66	=66	=66	=66	=66	=66	=66	=66
4.F\	.	4.f\	.	8an/L	.	8ee-\L	.	4.ryy	8ee-\L	a-
.	.	.	.	8f/	.	8an\	.	.	8an\J	.
.	.	.	.	8g/J	.	8b-\J	.	.	8b-\	-ni-
!	!	!LO:LB:g=original	!	!	!	!	!	!	!	!
=67	=67	=67	=67	=67	=67	=67	=67	=67	=67	=67
4.F\	.	4.f\	.	4.an/	.	8cc\L	.	4.ryy	8cc\L	-mam
.	.	.	.	.	.	8dd-X\	.	.	8ddn\J	.
.	.	.	.	.	.	8ee-\J	.	.	8ee-\	ge-
=68	=68	=68	=68	=68	=68	=68	=68	=68	=68	=68
8En\L	X -7	8en\L	.	8b-/L	.	8dd-X\L	.	4.ryy	8dd-X\	-men-
8F\J	X n	8f\J	.	8an/J	.	8cc\J	.	.	8cc\	-tem
!	!	!	!	!	!	!LO:TX:a:t=P:problem=plus nad pauzą	!	!	!	!
8r	.	8r	.	8r	.	8r	.	.	8r	.
=69	=69	=69	=69	=69	=69	=69	=69	=69	=69	=69
8r	.	8r	.	4.dd-X\	.	4.ff\	.	4.ryy	4.ff\	Con-
8B-\L	X -	8b-\L	.	.	.	.	.	.	.	.
8B-\J	.	8b-\J	.	.	.	.	.	.	.	.
=70	=70	=70	=70	=70	=70	=70	=70	=70	=70	=70
8r	.	8r	.	4.cc\	.	4.ff\	.	4.ryy	4.ff\	-tris-
8A-\L	X 6	8a-\L	.	.	.	.	.	.	.	.
8A-\J	.	8a-\J	.	.	.	.	.	.	.	.
=71	=71	=71	=71	=71	=71	=71	=71	=71	=71	=71
4.G\	X n7	4.g\	.	8bn/L	.	8ff\L	.	4.ryy	8ff\L	-ta-
.	.	.	.	8g/	.	8bn\	.	.	8bn\J	.
.	.	.	.	8an/J	.	8cc\J	.	.	8cc\	-tem
=72	=72	=72	=72	=72	=72	=72	=72	=72	=72	=72
4.G\	.	4.g\	.	4.bn\	.	8dd\L	.	4.ryy	8dd\L	et
.	.	.	.	.	.	8ee-\	.	.	8ee-\J	.
.	.	.	.	.	.	8ff\J	.	.	8ff\	do-
!	!	!	!	!	!	!LO:LB:g=original	!	!	!	!
=73	=73	=73	=73	=73	=73	=73	=73	=73	=73	=73
8F#X\L	X 7	8f#X\L	.	8cc\L	.	8ee-\L	.	4.ryy	8ee-\	-len-
8G\J	X n	8g\J	.	8bn\J	.	8dd\J	.	.	8dd\	-tem
8r	.	8r	.	8r	.	8r	.	.	8r	.
=74	=74	=74	=74	=74	=74	=74	=74	=74	=74	=74
!	!	!	!	!LO:TX:a:t=P:problem=znak początku repetycji	!	!LO:TX:a:t=P:problem=plus przed nutą	!	!	!	!
8r	.	8r	.	4Bn/ 4d	.	4.gg\	.	4.ryy	4.gg\	per-
8G\L	X n	8g\L	.	.	.	.	.	.	.	.
8F\J	.	8fn\J	.	8r	.	.	.	.	.	.
!	!	!	!	!	!	!	!	!	!LO:LB:g=original	!
=75	=75	=75	=75	=75	=75	=75	=75	=75	=75	=75
8E-\L	X 6	8e-\L	.	4c/ 4e-	.	4.gg\	.	4.ryy	4.gg\	-tran-
8D\	.	8d\	.	.	.	.	.	.	.	.
8C\J	.	8c\J	.	8r	.	.	.	.	.	.
!LO:LB:g=original	!	!	!	!LO:TX:a:t=P:problem=znak końca repetycji	!	!	!	!	!	!
=76	=76	=76	=76	=76	=76	=76	=76	=76	=76	=76
!LO:TX:a:t=P:problem=mixed beam	!	!LO:TX:a:t=P:problem=mixed beam	!	!	!	!	!	!	!	!
8GG/L	X n	8G/L	.	4Bn/ 4d	.	4.gg\	.	4.ryy	4.gg\	-si-
8G\	.	8g\	.	.	.	.	.	.	.	.
8F\J	.	8f\J	.	8r	.	.	.	.	.	.
=77	=77	=77	=77	=77	=77	=77	=77	=77	=77	=77
8E-\L	X 6	8e-\L	.	4c/ 4e-	.	4.gg\	.	4.ryy	4.gg\	-vit
8D\	.	8d\	.	.	.	.	.	.	.	.
8C\J	.	8c\J	.	8r	.	.	.	.	.	.
=78	=78	=78	=78	=78	=78	=78	=78	=78	=78	=78
8r	.	8r	.	4.ff#X\	.	4.ff#X\	.	4.ryy	4.ff#X\	per-
8D/L	X #	8d\L	.	.	.	.	.	.	.	.
8C/J	.	8c\J	.	.	.	.	.	.	.	.
=79	=79	=79	=79	=79	=79	=79	=79	=79	=79	=79
8BBn/L	6 5	8Bn/L	.	4.ffn\	.	4.ffn\	.	4.ryy	4.ffn\	-tran-
8AA-/	X n	8A-/	.	.	.	.	.	.	.	.
8GG/J	.	8G/J	.	.	.	.	.	.	.	.
=80	=80	=80	=80	=80	=80	=80	=80	=80	=80	=80
8C\L	.	8c\L	.	8ee-\L	.	8ee-\L	.	4.ryy	8ee-\L	-si-
8D\	.	8d\	.	8dd\	.	8dd\	.	.	8dd\J	.
!	!	!	!	!	!	!	!	!	!	!LO:SIC:s=-vit
8E-\J	.	8e-\J	.	8cc\J	.	8cc\J	.	.	8cc\	-vi
=81	=81	=81	=81	=81	=81	=81	=81	=81	=81	=81
!LO:TX:a:t=P:problem=mixed beam	!	!LO:TX:a:t=P:problem=mixed beam	!	!	!	!	!	!	!	!
8F\L	6 5	8f\L	.	16ff\LL	.	16ff\LL	.	4.ryy	16ff\LL	-gla-
.	.	.	.	16dd\JJ	.	16dd\JJ	.	.	16dd\JJ	.
8G\	X n	8g\	.	4bn\	.	4bn\	.	.	4bn\	-di-
8GG/J	.	8G/J	.	.	.	.	.	.	.	.
=82	=82	=82	=82	=82	=82	=82	=82	=82	=82	=82
!LO:TX:b:i:t=Testo Solo	!	!	!	!	!	!	!	!	!	!
4C/	.	4c\	.	4cc\	.	4cc\	.	4.ryy	4cc\	-us
8r	.	8r	.	8r	.	8r	.	.	8r	.
!	!	!LO:LB:g=original	!	!	!	!	!	!	!	!
=83	=83	=83	=83	=83	=83	=83	=83	=83	=83	=83
4.C/	.	4en\	.	8cc\	.	8cc\	.	4.ryy	8cc\	Cu-
.	.	.	.	4cc\	.	4cc\	.	.	4cc\	-jus
.	.	8e\	.	.	.	.	.	.	.	.
=84	=84	=84	=84	=84	=84	=84	=84	=84	=84	=84
!	!	!	!	!	!	!LO:TX:a:t=P:problem=plus nad nutą	!	!	!	!
4.C/	.	4f\	.	4dd-X\	.	4dd-X\	.	4.ryy	4dd-X\	a-
.	.	8f\	.	8cc\	.	8ddn\	.	.	8dd-\	-ni-
=85	=85	=85	=85	=85	=85	=85	=85	=85	=85	=85
4.C~</	.	4g\	.	4b-\	.	8een\	.	4.ryy	8een\	-mam
.	.	.	.	.	.	4ee\	.	.	4ee\	ge-
.	.	8g\	.	8b-\	.	.	.	.	.	.
=86	=86	=86	=86	=86	=86	=86	=86	=86	=86	=86
4.C~</	.	4c\	.	4a-/	.	8ff\	.	4.ryy	8ff\	-men-
.	.	.	.	.	.	4ff\	.	.	4ff\	-tem
.	.	8c\	.	8a-/	.	.	.	.	.	.
=87	=87	=87	=87	=87	=87	=87	=87	=87	=87	=87
4.C~</	.	4a-\	.	4f/	.	8aa-\	.	4.ryy	8aa-\	Con-
.	.	.	.	.	.	8qqcc/	.	.	8qqcc/	.
.	.	.	.	.	.	4bn\	.	.	4bn\	-tris-
.	.	8a-\	.	8f/	.	.	.	.	.	.
=88	=88	=88	=88	=88	=88	=88	=88	=88	=88	=88
4.C~</	.	4g\	.	4e-/	.	8cc\	.	4.ryy	8cc\	-tan-
.	.	.	.	.	.	4cc\	.	.	4cc\	-tem
.	.	8g\	.	8e-/	.	.	.	.	.	.
!	!	!	!	!	!	!	!	!	!LO:LB:g=original	!
=89	=89	=89	=89	=89	=89	=89	=89	=89	=89	=89
4F#X\	X 7_	4f#X\	.	8cc\	.	8ee-\	.	4.ryy	8ee-\	et
.	.	.	.	4cc\	.	4ee-\	.	.	4ee-\	do-
8F#\	x	8f#\	.	.	.	.	.	.	.	.
=90	=90	=90	=90	=90	=90	=90	=90	=90	=90	=90
!LO:TX:a:t=P:problem=mixed beam	!	!	!	!	!	!	!	!	!	!
8G\L	X 4	4g\	.	8cc\L	.	8ee-\L	.	4.ryy	8ee-\	-len-
8GG/J	X n	.	.	8bn\J	.	8dd\J	.	.	8dd\	-tem
8r	.	8r	.	8r	.	8r	.	.	8r	.
=91	=91	=91	=91	=91	=91	=91	=91	=91	=91	=91
!	!	!	!	!LO:TX:a:t=P:problem=znak początku repetycji	!	!	!	!	!	!
8r	.	8r	.	4d/ 4bn	.	4.gg\	.	4.ryy	4.gg\	per-
8G\L	X n	8g\L	.	.	.	.	.	.	.	.
8F\J	.	8fn\J	.	8r	.	.	.	.	.	.
=92	=92	=92	=92	=92	=92	=92	=92	=92	=92	=92
8E-\L	X 6	8e-\L	.	4e-/ 4cc	.	4.gg\	.	4.ryy	4.gg\	-tran-
8D\	.	8d\	.	.	.	.	.	.	.	.
8C\J	.	8c\J	.	8r	.	.	.	.	.	.
!	!	!	!	!LO:TX:a:t=P:problem=znak końca repetycji	!	!	!	!	!	!
=93	=93	=93	=93	=93	=93	=93	=93	=93	=93	=93
!LO:TX:a:t=P:problem=mixed beam	!	!LO:TX:a:t=P:problem=mixed beam	!	!	!	!	!	!	!	!
8GG/L	X n	8G/L	.	4d/ 4bn	.	4.gg\	.	4.ryy	4.gg\	-si-
8G\	.	8g\	.	.	.	.	.	.	.	.
8F\J	.	8f\J	.	8r	.	.	.	.	.	.
!LO:LB:g=original	!	!	!	!	!	!	!	!	!	!
=94	=94	=94	=94	=94	=94	=94	=94	=94	=94	=94
!	!	!	!	!	!	!	!	!	!	!LO:SIC:s=-vit
8E-\L	X 6	8e-\L	.	4e-/ 4cc	.	4.gg\	.	4.ryy	4.gg\	-vi
8D\	.	8d\	.	.	.	.	.	.	.	.
8C\J	.	8c\J	.	8r	.	.	.	.	.	.
=95	=95	=95	=95	=95	=95	=95	=95	=95	=95	=95
8r	.	8r	.	4.ff#X\	.	4.ff#X\	.	4.ryy	4.ff#X\	per-
8D/L	X #	8d\L	.	.	.	.	.	.	.	.
8C/J	.	8c\J	.	.	.	.	.	.	.	.
=96	=96	=96	=96	=96	=96	=96	=96	=96	=96	=96
8BBn/L	6 5	8Bn/L	.	4.ffn\	.	4.ffn\	.	4.ryy	4.ffn\	-tran-
!	!	!LO:SIC:s=8An	!	!	!	!	!	!	!	!
8AAn/	.	8A-/	.	.	.	.	.	.	.	.
8GG/J	.	8G/J	.	.	.	.	.	.	.	.
!	!	!	!	!	!	!LO:LB:g=original	!	!	!	!
=97	=97	=97	=97	=97	=97	=97	=97	=97	=97	=97
8C\L	.	8c\L	.	8ee-\L	.	8ee-\L	.	4.ryy	8ee-\L	-si-
8D\	.	8d\	.	8dd\	.	8dd\	.	.	8dd\J	.
!	!	!	!	!	!	!	!	!	!	!LO:SIC:s=-vit
8E-\J	.	8e-\J	.	8cc\J	.	8cc\J	.	.	8cc\	-vi
!	!	!LO:LB:g=original	!	!	!	!	!	!	!	!
=98	=98	=98	=98	=98	=98	=98	=98	=98	=98	=98
!LO:TX:a:t=P:problem=mixed beam	!	!LO:TX:a:t=P:problem=mixed beam	!	!	!	!	!	!	!	!
8F\L	6 5	8f\L	.	16dd\LL	.	16dd\LL	.	4.ryy	16dd\LL	gla-
.	.	.	.	16ff\J	.	16ff\J	.	.	16ff\J	.
8G\	X n6	8g\	.	8ee-\	.	8ee-\	.	.	8ee-\J	.
8GG/J	.	8G/J	.	8bn\J	.	8bn\J	.	.	8bn\	-di-
=99	=99	=99	=99	=99	=99	=99	=99	=99	=99	=99
!	!	!	!	!	!	!	!	!	!LO:SIC:s=8qqbn	!
.	.	.	.	.	.	.	.	.	8qqb-/	.
!	!	!	!	!LO:TX:a:t=P:problem=mixed beam	!	!LO:TX:a:t=P:problem=mixed beam	!	!	!	!
8C\L	.	8c\L	.	8cc\L	.	8cc\L	.	4.ryy	4cc\	-us
8D\	.	8d\	.	8Bn/	.	8Bn/	.	.	.	.
8E-\J	.	8e-\J	.	8c/J	.	8c/J	.	.	8r	.
=100	=100	=100	=100	=100	=100	=100	=100	=100	=100	=100
8r	.	8r	.	4.ff#X\	.	4.ff#X\	.	4.ryy	4.ff#X\	per-
8D\L	X #	8d\L	.	.	.	.	.	.	.	.
8C\J	.	8c\J	.	.	.	.	.	.	.	.
=101	=101	=101	=101	=101	=101	=101	=101	=101	=101	=101
8BBn/L	6 5	8Bn/L	.	4.ffn\	.	4.ffn\	.	4.ryy	4.ffn\	-tran-
8AA-/	.	8An/	.	.	.	.	.	.	.	.
8GG/J	.	8G/J	.	.	.	.	.	.	.	.
=102	=102	=102	=102	=102	=102	=102	=102	=102	=102	=102
8C\L	.	8c\L	.	8ee-\L	.	8ee-\L	.	4.ryy	8ee-\L	-si-
8D\	.	8d\	.	8dd\	.	8dd\	.	.	8dd\J	.
!	!	!	!	!	!	!	!	!	!	!LO:SIC:s=-vit
8E-\J	.	8e-\J	.	8cc\J	.	8cc\J	.	.	8cc\	-vi
!	!	!	!	!	!	!	!	!	!LO:LB:g=original	!
=103	=103	=103	=103	=103	=103	=103	=103	=103	=103	=103
!LO:TX:a:t=P:problem=mixed beam	!	!LO:TX:a:t=P:problem=mixed beam	!	!	!	!	!	!	!	!
!	!	!	!	!LO:TX:a:t=P:problem=znak początku repetycji	!	!	!	!	!	!
8F\L	6 5	8f\L	.	16dd\LL	.	16dd\LL	.	4.ryy	16dd\LL	gla-
.	.	.	.	16ff\J	.	16ff\J	.	.	16ff\J	.
8G\	X 4	8g\	.	8ee-\	.	8ee-\	.	.	8ee-\J	.
8GG/J	X n	8G/J	.	8bn\J	.	8bn\J	.	.	8bn\	-di-
=104	=104	=104	=104	=104	=104	=104	=104	=104	=104	=104
4C/	.	4c\	.	8cc\	.	8cc\	.	4.ryy	4cc\	-us
.	.	.	.	4ccc\	.	4ccc\	.	.	.	.
8E-\	X 6	8e-\	.	.	.	.	.	.	8r	.
!	!	!	!	!LO:TX:a:t=P:problem=znak końca repetycji	!	!	!	!	!	!
=105	=105	=105	=105	=105	=105	=105	=105	=105	=105	=105
!	!	!	!	!	!	!	!	!	!LO:N:vis=00	!
4F\	6 5	4f\	.	16dd\LL	.	16dd\LL	.	4.ryy	1.r	.
.	.	.	.	16ff\J	.	16ff\J	.	.	.	.
.	.	.	.	8ee-\	.	8ee-\	.	.	.	.
8G\	X n	8g\	.	8bn\J	.	8bn\J	.	.	.	.
=106	=106	=106	=106	=106	=106	=106	=106	=106	=106	=106
8r	.	8r	.	8cc\	.	8cc\	.	4.ryy	.	.
8A-\L	.	8a-\L	.	4ccc\	.	4ccc\	.	.	.	.
8E-\J	X 6	8e-\J	.	.	.	.	.	.	.	.
=107	=107	=107	=107	=107	=107	=107	=107	=107	=107	=107
!LO:TX:a:t=P:problem=mixed beam	!	!LO:TX:a:t=P:problem=mixed beam	!	!	!	!	!	!	!	!
8F\L	6 7	8f\L	.	16dd\LL	.	16dd\LL	.	4.ryy	.	.
!	!	!	!	!LO:TX:a:t=P:problem=ostatnie dźwięki niewidoczne - rekostrukcja	!	!	!	!	!	!
.	.	.	.	16ffyy\J	.	16ff\J	.	.	.	.
8G\	X 4	8g\	.	8ee-yy\	.	8ee-\	.	.	.	.
8GG/J	n 3	8G/J	.	8bnyy\J	.	8bn\J	.	.	.	.
!LO:LB:g=original	!	!	!	!	!	!	!	!	!	!
=108	=108	=108	=108	=108	=108	=108	=108	=108	=108	=108
!	!	!LO:TX:a:t=P:problem=fermata bez kropki	!	!	!	!LO:TX:a:t=P:problem=mixed beam	!	!	!	!
4C/	.	4c;>\	.	8ccyy\L	.	8cc\L	.	4.ryy	.	.
.	.	.	.	8cyy\J	.	8c/J	.	.	.	.
8r	.	8r	.	8ryy	.	8r	.	.	.	.
==	==	==	==	==	==	==	==	==	==	==
*-	*-	*-	*-	*-	*-	*-	*-	*-	*-	*-
!!!system-decoration: s1,s2,s3,s4,s5,s6
!!!RDF**kern: > = above
!!!RDF**kern: < = below
!!!EED: Mateusz Mrugas
!!!EST: 2020-11-29
!!!AIN: 1 alto 1 organ 1 viola 2 violn 1 vox
!!!ENC: Tomasz Grochalski
!!!END: 2020-06-09
